img/icons-payable-taxes/02.svg

<svg width="37" height="39" viewBox="0 0 37 39" fill="none" xmlns="http://www.w3.org/2000/svg">
<path d="M33.9205 7.16428C33.7305 6.91927 33.3778 6.87465 33.1328 7.06472C32.8878 7.25479 32.8432 7.60745 33.0332 7.85246C34.7582 10.0764 35.7508 12.8007 35.8658 15.5933L28.3267 13.5732C28.6415 11.5754 28.7656 9.54601 28.6945 7.53289C28.6534 6.36763 28.5456 5.19623 28.3748 4.03756C29.4341 4.56285 30.4258 5.2285 31.3133 6.01542C31.5454 6.22113 31.9002 6.19972 32.1059 5.96781C32.3116 5.73574 32.2902 5.38091 32.0583 5.17527C30.5915 3.87497 28.8753 2.89499 27.0243 2.27028L27.5668 0.750267C27.6711 0.458241 27.5187 0.13702 27.2268 0.0328161C26.9347 -0.071388 26.6135 0.0808009 26.5093 0.372827L25.9444 1.95558C19.589 0.378591 12.9288 3.26831 9.71059 9.01338C9.66725 9.09386 9.62668 9.19664 9.63536 9.33438L9.83434 12.2612C9.87236 12.8199 10.2613 13.2927 10.8023 13.4377L16.3467 14.9233C16.8791 15.0661 17.4596 14.8563 17.7732 14.3884L18.494 13.3154L18.5816 14.605C18.6197 15.1637 19.0086 15.6366 19.5496 15.7816L21.7793 16.379L18.6396 28.0965L13.3878 28.0813H13.3861C13.0768 28.0813 12.8256 28.3316 12.8247 28.6412C12.8238 28.9512 13.0744 29.2034 13.3845 29.2042L24.3798 29.236H24.3853C24.935 29.236 25.4707 29.0111 25.8556 28.6183L29.8128 24.5804C30.6293 23.7472 31.8719 23.447 32.9787 23.8161L34.1822 24.2172L26.6785 31.7728C26.3646 32.0889 25.929 32.2702 25.4834 32.2702H3.74993C3.69311 31.417 3.92944 30.5865 4.54351 29.9745C5.05308 29.4667 5.72913 29.1873 6.448 29.1873H6.45728L10.7639 29.203H10.766C11.0751 29.203 11.3263 28.953 11.3275 28.6436C11.3286 28.3335 11.0781 28.0812 10.7681 28.0801L6.46118 28.0644C5.43583 28.0605 4.47554 28.4568 3.75082 29.1792C2.83791 30.0892 2.62704 31.3373 2.62704 32.6071C2.62704 33.0405 2.97962 33.3931 3.41306 33.3931H4.76329L3.60185 35.9456C3.41403 36.3584 3.40767 36.808 3.54833 37.2051H0.561444C0.251377 37.2051 0 37.4564 0 37.7665C0 38.0767 0.251377 38.328 0.561444 38.328H35.1107C35.4208 38.328 35.6722 38.0767 35.6722 37.7665C35.6722 37.4564 35.4208 37.2051 35.1107 37.2051H29.8399C29.9805 36.808 29.9742 36.3583 29.7864 35.9455L28.0051 32.0306L35.3616 24.623C35.7687 24.2193 35.5915 23.4983 35.0523 23.3236L33.3338 22.7507C31.8225 22.2471 30.1257 22.6566 29.0107 23.7943L25.0536 27.8322C24.8787 28.0107 24.6351 28.113 24.3853 28.113H24.3829L19.8011 28.0997L22.8638 16.6695L25.0939 17.267C25.6262 17.41 26.2069 17.1999 26.5205 16.732L27.2412 15.6591L27.3289 16.9487C27.3669 17.5074 27.7559 17.9802 28.2969 18.1253L33.8412 19.6108C34.3736 19.7537 34.9542 19.5439 35.2678 19.0759L36.9034 16.6407C36.9517 16.5626 36.9989 16.463 36.9988 16.3253C37.0411 13.0314 35.9482 9.77829 33.9205 7.16428V7.16428ZM5.13475 37.2051C5.05435 37.2051 4.97619 37.188 4.90238 37.1545C4.62061 37.0262 4.49567 36.6925 4.62398 36.4105L5.99705 33.393H7.23148L5.64633 36.876C5.55538 37.0759 5.35461 37.2051 5.13475 37.2051V37.2051ZM16.1993 37.2051H6.73022L8.46508 33.3931H17.2205L16.1993 37.2051ZM17.3618 37.2051L18.383 33.3931H24.9233L26.6581 37.2051H17.3618ZM28.7643 36.4105C28.8925 36.6926 28.7677 37.0263 28.4848 37.1549C28.4121 37.1882 28.3346 37.2051 28.2543 37.2051C28.0343 37.2051 27.8331 37.0756 27.7419 36.876L26.1225 33.3176C26.4898 33.2309 26.8384 33.0713 27.1435 32.8484L28.7643 36.4105ZM16.841 13.7621C16.7965 13.8285 16.7145 13.8592 16.6372 13.8385L11.0929 12.3529C11.0156 12.3323 10.9601 12.2647 10.9546 12.1849L10.8089 10.0418L18.0387 11.979L16.841 13.7621ZM18.5901 10.9642L11.0569 8.94571C13.7761 4.64048 18.6674 2.25995 23.6415 2.70364C22.7685 3.65608 21.9669 4.67536 21.2522 5.74652C20.1671 7.37284 19.2733 9.12605 18.5901 10.9642V10.9642ZM25.5883 16.1059C25.5437 16.1724 25.4618 16.2031 25.3845 16.1824L19.8402 14.6968C19.7629 14.6761 19.7074 14.6085 19.7019 14.5287L19.5562 12.3856L26.786 14.3229L25.5883 16.1059ZM27.2357 13.2808L19.6798 11.2562C20.3279 9.53583 21.1691 7.89439 22.1863 6.3698C23.0129 5.13096 23.9613 3.96472 25.0056 2.89693C25.7351 3.03857 26.4562 3.24368 27.1528 3.50674C27.3827 4.84926 27.5245 6.21522 27.5724 7.57257C27.6395 9.47451 27.5259 11.3917 27.2357 13.2808V13.2808ZM34.3355 18.4498C34.2909 18.5162 34.209 18.5469 34.1317 18.5262L28.5874 17.0406C28.5101 17.02 28.4545 16.9524 28.4491 16.8726L28.3035 14.7296L35.5332 16.6668L34.3355 18.4498Z" fill="#007A65"/>
</svg>

<svg width="37" height="39" fill="none" xmlns="http://www.w3.org/2000/svg"><path d="M33.92 7.164a.561.561 0 10-.887.688 13.585 13.585 0 012.833 7.741l-7.54-2.02c.316-1.998.44-4.027.369-6.04a31.671 31.671 0 00-.32-3.495c1.06.525 2.05 1.19 2.938 1.977a.562.562 0 00.745-.84 14.634 14.634 0 00-5.034-2.905l.543-1.52a.561.561 0 10-1.058-.377l-.565 1.583C19.59.379 12.93 3.268 9.711 9.013a.575.575 0 00-.076.321l.2 2.927a1.31 1.31 0 00.967 1.177l5.545 1.485a1.314 1.314 0 001.426-.535l.721-1.073.088 1.29a1.31 1.31 0 00.968 1.177l2.23.597-3.14 11.717-5.252-.015h-.002a.561.561 0 00-.002 1.123l10.996.032h.005a2.07 2.07 0 001.47-.618l3.958-4.038a3.09 3.09 0 013.166-.764l1.203.401-7.504 7.556a1.693 1.693 0 01-1.195.497H3.75c-.057-.853.18-1.684.794-2.296a2.68 2.68 0 011.904-.787h.01l4.306.016h.002a.562.562 0 00.002-1.123l-4.307-.016a3.79 3.79 0 00-2.71 1.115c-.913.91-1.124 2.158-1.124 3.428 0 .434.353.786.786.786h1.35l-1.161 2.553a1.678 1.678 0 00-.054 1.26H.561a.561.561 0 100 1.122h34.55a.561.561 0 100-1.123H29.84c.14-.397.134-.847-.054-1.26l-1.78-3.914 7.356-7.408c.407-.404.23-1.125-.31-1.3l-1.718-.572a4.221 4.221 0 00-4.323 1.043l-3.957 4.038a.941.941 0 01-.669.281h-.002L19.8 28.1l3.063-11.43 2.23.597a1.314 1.314 0 001.426-.535l.721-1.073.088 1.29a1.31 1.31 0 00.968 1.176l5.544 1.486a1.314 1.314 0 001.427-.535l1.635-2.435a.576.576 0 00.096-.316 14.698 14.698 0 00-3.079-9.16zM5.135 37.205a.562.562 0 01-.51-.795l1.372-3.017h1.234l-1.585 3.483c-.09.2-.291.33-.511.33zm11.064 0H6.73l1.735-3.812h8.756l-1.022 3.812zm1.163 0l1.021-3.812h6.54l1.735 3.812h-9.296zm11.402-.794a.563.563 0 01-1.022.465l-1.62-3.558a2.839 2.839 0 001.021-.47l1.621 3.563zm-11.923-22.65a.187.187 0 01-.204.076l-5.544-1.485a.187.187 0 01-.138-.168l-.146-2.143 7.23 1.937-1.198 1.783zm1.75-2.798l-7.534-2.018a13.5 13.5 0 0112.585-6.242 25.258 25.258 0 00-2.39 3.043 25.262 25.262 0 00-2.662 5.217zm6.997 5.142a.187.187 0 01-.204.076l-5.544-1.485a.187.187 0 01-.138-.168l-.146-2.143 7.23 1.937-1.198 1.783zm1.648-2.825l-7.556-2.025a24.142 24.142 0 012.506-4.886 24.146 24.146 0 012.82-3.473c.73.142 1.45.347 2.147.61a30.54 30.54 0 01.42 4.066 30.56 30.56 0 01-.337 5.708zm7.1 5.169a.187.187 0 01-.204.076l-5.545-1.485a.187.187 0 01-.138-.168l-.146-2.143 7.23 1.937-1.197 1.783z" fill="#007A65"/></svg>
